Yaru++/status/24/megapaused.svg

<svg height="24" width="24" xmlns="http://www.w3.org/2000/svg">
  <g fill-rule="evenodd">
    <path d="m11.683594.49609375a11 11 0 0 0 -10.683594 11.00000025 11 11 0 0 0 12.257812 10.923828 6.5 6.5 0 0 1 -2.257812-4.919922 6.5 6.5 0 0 1 .962891-3.390625.64569997.64569997 0 0 1 -.427735-.193359l-2.9277341-2.970704a.0407.0407 0 0 0 -.0136719-.007812.0407.0407 0 0 0 -.0351562.001953.0407.0407 0 0 0 -.0214844.035156v4.316407a.32999999.32999999 0 0 1 -.3300782.330078h-1.3769531a.32999999.32999999 0 0 1 -.3300781-.330078v-7.5898441a.32999999.32999999 0 0 1 .3300781-.3300781h.9472657a.64789997.64789997 0 0 1 .4609374.1933593l3.6523438 3.6894529a.16169999.16169999 0 0 0 .230469 0l3.644531-3.691406a.64789997.64789997 0 0 1 .460937-.1933594h.94336a.32999999.32999999 0 0 1 .330078.3300782v3.3007812a6.5 6.5 0 0 1 5.263672 2.701172 11 11 0 0 0 .236328-2.205078 11 11 0 0 0 -11.316406-11.00000025zm3.726562 10.43945325a.0407.0407 0 0 0 -.007812.001953.0407.0407 0 0 0 -.013672.009766l-.681641.689453a6.5 6.5 0 0 1 .751953-.298828v-.361329a.0407.0407 0 0 0 -.011718-.029296.0407.0407 0 0 0 -.009766-.007813.0407.0407 0 0 0 -.027344-.003906z" fill="#fff" fill-opacity=".89"/>
    <path d="m35.332203 14.81179 2.666-2.7a.037.037 0 0 1 .063.027v.41a6.444 6.444 0 0 1 1.852-.756v-2.631a.3.3 0 0 0 -.3-.3h-.862a.589.589 0 0 0 -.419.176l-3.319 3.355a.146.146 0 0 1 -.209 0l-3.310001-3.355a.589.589 0 0 0 -.419-.176h-.862a.3.3 0 0 0 -.3.3v6.9a.3.3 0 0 0 .3.3h1.256a.3.3 0 0 0 .3-.3v-3.922a.037.037 0 0 1 .059-.028l2.666 2.7a.587.587 0 0 0 .838001 0z" fill="#764c4c" opacity="0"/>
    <path d="m12.003054 17.634224a5.5 5.5 0 1 0 5.5-5.5 5.5 5.5 0 0 0 -5.5 5.5zm4 2.5h-1v-5h1zm4 0h-1v-5h1z" fill="#fff" fill-opacity=".89"/>
  </g>
</svg>

<svg xmlns="http://www.w3.org/2000/svg" width="24" height="24" version="1.1">
 <defs>
  <style id="style2" type="text/css">
   .ColorScheme-Text { color:#5c616c; } .ColorScheme-Highlight { color:#5294e2; } .ColorScheme-ButtonBackground { color:#d3dae3; }
  </style>
 </defs>
 <path style="fill:#ffffff;fill-opacity:0.88999999;fill-rule:evenodd" id="Shape_2_copy" d="M 11.683594 0.49609375 A 11 11 0 0 0 1 11.496094 A 11 11 0 0 0 13.257812 22.419922 A 6.5 6.5 0 0 1 11 17.5 A 6.5 6.5 0 0 1 11.962891 14.109375 A 0.64569997 0.64569997 0 0 1 11.535156 13.916016 L 8.6074219 10.945312 A 0.0407 0.0407 0 0 0 8.59375 10.9375 A 0.0407 0.0407 0 0 0 8.5585938 10.939453 A 0.0407 0.0407 0 0 0 8.5371094 10.974609 L 8.5371094 15.291016 A 0.32999999 0.32999999 0 0 1 8.2070312 15.621094 L 6.8300781 15.621094 A 0.32999999 0.32999999 0 0 1 6.5 15.291016 L 6.5 7.7011719 A 0.32999999 0.32999999 0 0 1 6.8300781 7.3710938 L 7.7773438 7.3710938 A 0.64789997 0.64789997 0 0 1 8.2382812 7.5644531 L 11.890625 11.253906 A 0.16169999 0.16169999 0 0 0 12.121094 11.253906 L 15.765625 7.5625 A 0.64789997 0.64789997 0 0 1 16.226562 7.3691406 L 17.169922 7.3691406 A 0.32999999 0.32999999 0 0 1 17.5 7.6992188 L 17.5 11 A 6.5 6.5 0 0 1 22.763672 13.701172 A 11 11 0 0 0 23 11.496094 A 11 11 0 0 0 11.683594 0.49609375 z M 15.410156 10.935547 A 0.0407 0.0407 0 0 0 15.402344 10.9375 A 0.0407 0.0407 0 0 0 15.388672 10.947266 L 14.707031 11.636719 A 6.5 6.5 0 0 1 15.458984 11.337891 L 15.458984 10.976562 A 0.0407 0.0407 0 0 0 15.447266 10.947266 A 0.0407 0.0407 0 0 0 15.4375 10.939453 A 0.0407 0.0407 0 0 0 15.410156 10.935547 z"/>
 <path id="M" d="m 35.332203,14.81179 2.666,-2.7 a 0.037,0.037 0 0 1 0.063,0.027 v 0.41 a 6.444,6.444 0 0 1 1.852,-0.756 v -2.631 a 0.3,0.3 0 0 0 -0.3,-0.3 h -0.862 a 0.589,0.589 0 0 0 -0.419,0.176 l -3.319,3.355 a 0.146,0.146 0 0 1 -0.209,0 l -3.310001,-3.355 a 0.589,0.589 0 0 0 -0.419,-0.176 h -0.862 a 0.3,0.3 0 0 0 -0.3,0.3 v 6.9 a 0.3,0.3 0 0 0 0.3,0.3 h 1.256 a 0.3,0.3 0 0 0 0.3,-0.3 v -3.922 a 0.037,0.037 0 0 1 0.059,-0.028 l 2.666,2.7 a 0.587,0.587 0 0 0 0.838001,0 z" style="opacity:0;fill:#764c4c;fill-rule:evenodd"/>
 <path id="O2" d="m 12.003054,17.634224 a 5.5,5.5 0 1 0 5.5,-5.5 5.5,5.5 0 0 0 -5.5,5.5 z m 4,2.5 h -1 v -5 h 1 z m 4,0 h -1 v -5 h 1 z" style="fill:#ffffff;fill-opacity:0.88999999;fill-rule:evenodd"/>
</svg>
